public/assets/signin/facebook.svg

<svg width="24" height="25" viewBox="0 0 24 25" fill="none" xmlns="http://www.w3.org/2000/svg">
<path d="M15.1194 5.82003H16.9994V2.64003C16.0891 2.54538 15.1745 2.49865 14.2594 2.50003C11.5394 2.50003 9.67938 4.16003 9.67938 7.20003V9.82003H6.60938V13.38H9.67938V22.5H13.3594V13.38H16.4194L16.8794 9.82003H13.3594V7.55003C13.3594 6.50003 13.6394 5.82003 15.1194 5.82003Z" fill="#202020"/>
</svg>

<svg width="24" height="25" fill="none" xmlns="http://www.w3.org/2000/svg"><path d="M15.12 5.82H17V2.64a26.113 26.113 0 0 0-2.74-.14c-2.72 0-4.58 1.66-4.58 4.7v2.62H6.61v3.56h3.07v9.12h3.68v-9.12h3.06l.46-3.56h-3.52V7.55c0-1.05.28-1.73 1.76-1.73Z" fill="#202020"/></svg>
